Sources/FrostedUI/Resources/Icons.xcassets/split12.imageset/split-12.svg

<svg width="12" height="12" viewBox="0 0 12 12" fill="none" xmlns="http://www.w3.org/2000/svg" data-fui-icon="true">
  <path
    d="M9.2998 0.150635C9.63107 -0.0978146 10.101 -0.0310521 10.3496 0.300049L11.8496 2.30005C12.0495 2.5667 12.0496 2.93383 11.8496 3.20044L10.3496 5.20044C10.101 5.53136 9.63101 5.59816 9.2998 5.34985C8.96876 5.1013 8.90208 4.63131 9.15039 4.30005L9.75 3.50024H8.44043C8.15978 3.50029 7.90485 3.66347 7.78711 3.91821L6.8252 6.00024L7.78711 8.08228C7.9049 8.3369 8.15985 8.5002 8.44043 8.50024H9.75L9.15039 7.70044C8.90197 7.36921 8.96881 6.89925 9.2998 6.65063C9.63107 6.40218 10.101 6.46895 10.3496 6.80005L11.8496 8.80005C12.0495 9.0667 12.0496 9.43383 11.8496 9.70044L10.3496 11.7004C10.101 12.0314 9.63101 12.0982 9.2998 11.8499C8.96876 11.6013 8.90208 11.1313 9.15039 10.8L9.75 10.0002H8.44043C7.57464 10.0002 6.7877 9.49626 6.4248 8.71021L5.52051 6.75024H4.88477C4.56606 7.76429 3.61925 8.50024 2.5 8.50024C1.11937 8.50024 0.000133738 7.38084 0 6.00024C0 4.61953 1.11929 3.50024 2.5 3.50024C3.61951 3.50024 4.56726 4.23582 4.88574 5.25024H5.52051L6.4248 3.29028C6.78766 2.50411 7.57456 2.00029 8.44043 2.00024H9.75L9.15039 1.20044C8.90197 0.869213 8.96881 0.399248 9.2998 0.150635ZM2.5 5.00024C1.94772 5.00024 1.5 5.44796 1.5 6.00024C1.50013 6.55241 1.9478 7.00024 2.5 7.00024C3.0522 7.00024 3.49987 6.55241 3.5 6.00024C3.5 5.44796 3.05228 5.00024 2.5 5.00024Z"
    fill="currentColor"
  />
</svg>

<svg xmlns="http://www.w3.org/2000/svg" width="12" height="12" fill="none" data-fui-icon="true" viewBox="0 0 12 12"><path fill="currentColor" d="M9.3.15a.75.75 0 0 1 1.05.15l1.5 2c.2.267.2.634 0 .9l-1.5 2a.75.75 0 0 1-1.2-.9l.6-.8H8.44a.72.72 0 0 0-.653.418L6.825 6l.962 2.082a.72.72 0 0 0 .653.418h1.31l-.6-.8a.75.75 0 0 1 1.2-.9l1.5 2c.2.267.2.634 0 .9l-1.5 2a.75.75 0 0 1-1.2-.9l.6-.8H8.44a2.22 2.22 0 0 1-2.015-1.29L5.52 6.75h-.636a2.5 2.5 0 1 1 0-1.5h.636l.904-1.96A2.22 2.22 0 0 1 8.44 2h1.31l-.6-.8A.75.75 0 0 1 9.3.15M2.5 5a1 1 0 1 0 0 2 1 1 0 0 0 0-2"/></svg>
